X:2136
T:Brian O'Lynn
M:6/8
L:1/8
C:Trad
R:Jig
K:G
B | cAd cAG |~E3 GAB | cAd cAG | EAA A2 B | cAd cAG | ~E3 GAB | cde fed
| cAA A2 :|
|: f | ~g3 ged | cAB c2 d | e2 a age | ed^c def | ~g3 ged | cAB cde | fe
d cAG | EAA A2 :|


